X:14
T:The Humours of Glendart
A:Irish
S:Kim Vincent
A:Ireland
R:Jig
M:6/8
L:1/8
K:D
"D"BAF ADD| ~F3 DFA | BAF ADD|"A"FEE EFA|
"D"BAF ADD| ~F3 DFA | "G"dcB "A"AFE |1 "D"FDD D2 B:|2 "D"FDD D2 A||
"D"def d2B| "A"ABA AFA | "D"def d2f | "Em"ede fdB |
"D"def d2B| "A"ABA "G"ABc | "D"dcB "A"AFE |1 "D"FDD D2 A:|2 "D"FDD D2 B||
